/* XPM */
static char *magpy2_logo[] = {
/* columns rows colors chars-per-pixel */
"128 128 116 2 ",
"   c #010101",
".  c #080606",
"X  c #060807",
"o  c #090806",
"O  c #090708",
"+  c #0B0B0B",
"@  c #100E0F",
"#  c #0E100F",
"$  c #12100F",
"%  c #110F10",
"&  c #0F1110",
"*  c #141313",
"=  c #181616",
"-  c #191816",
";  c #191718",
":  c #171918",
">  c #1C1B1B",
",  c #201E1E",
"<  c #22211F",
"1  c #211F20",
"2  c #242323",
"3  c #282626",
"4  c #292826",
"5  c #292728",
"6  c #2C2B2B",
"7  c #312E2E",
"8  c #31302E",
"9  c #312F30",
"0  c #343333",
"q  c #393635",
"w  c #3A3937",
"e  c #373739",
"r  c #393738",
"t  c #3D3B3B",
"y  c #413E3E",
"u  c #42403F",
"i  c #413F40",
"p  c #444343",
"a  c #494645",
"s  c #494846",
"d  c #494748",
"f  c #4C4B4B",
"g  c #504E4E",
"h  c #52514F",
"j  c #514F50",
"k  c #545353",
"l  c #595655",
"z  c #5A5957",
"x  c #595758",
"c  c #5D5B5B",
"v  c #615D5D",
"b  c #62615F",
"n  c #615F60",
"m  c #646363",
"M  c #696565",
"N  c #6A6866",
"B  c #696768",
"V  c #6C6A6A",
"C  c #716E6E",
"Z  c #73706F",
"A  c #716F70",
"S  c #757473",
"D  c #797676",
"F  c #7A7877",
"G  c #797778",
"H  c #7D7B7B",
"J  c #807E7D",
"K  c #82807F",
"L  c #817F80",
"P  c #858382",
"I  c #898686",
"U  c #898886",
"Y  c #898788",
"T  c #8D8B8B",
"R  c #918E8E",
"E  c #91918F",
"W  c #918F90",
"Q  c #959393",
"!  c #999695",
"~  c #9C9897",
"^  c #9A9798",
"/  c #9D9B9B",
"(  c #A19E9E",
")  c #A2A19F",
"_  c #A4A2A2",
"`  c #A9A6A5",
"'  c #ABA9A7",
"]  c #AAA7A8",
"[  c #ADABAA",
"{  c #B1AEAD",
"}  c #B2B1AF",
"|  c #B2AFB0",
" . c #B5B3B2",
".. c #B9B6B5",
"X. c #BBB8B7",
"o. c #B9B7B8",
"O. c #BDBBBA",
"+. c #C1BEBD",
"@. c #C2C0BF",
"#. c #C1BFC0",
"$. c #C5C3C3",
"%. c #C9C5C5",
"&. c #CAC8C7",
"*. c #CDCBCB",
"=. c #D2CECD",
"-. c #D3D0CF",
";. c #D3CFD0",
":. c #D6D3D2",
">. c #DAD6D5",
",. c #DCD8D7",
"<. c #DBD7D8",
"1. c #DDDAD9",
"2. c #E1DCDC",
"3. c #E3E0DF",
"4. c #E3DFE0",
"5. c #E4E1E0",
/* pixels */
">.>.>.>.>.>.>.>.>.>.>.>.>.>.>.>.>.>.>.>.>.>.>.>.>.>.>.>.>.>.>.>.>.>.>.>.>.>.2.:.>.>.>.>.>.>.>.:.>.>.>.>.>.>.>.>.>.>.>.>.>.>.>.,.>.>.>.>.>.>.>.>.>.>.>.>.>.>.>.>.,.>.>.>.>.>.>.>.>.>.>.>.>.>.>.>.>.>.>.>.>.>.>.>.>.>.>.>.>.>.>.>.>.>.>.>.>.>.>.,.>.>.>.>.>.>.>.>.",
">.>.>.>.>.>.>.>.>.,.>.>.>.>.>.>.>.>.>.>.>.>.>.>.>.>.>.>.>.>.,.>.>.>.>.>.>.>.>.>.>.>.>.>.>.>.>.2.>.>.>.>.>.>.>.>.>.>.>.>.>.>.>.>.>.>.>.>.>.>.>.>.>.>.>.>.,.>.>.>.>.>.>.>.>.>.>.>.>.>.>.>.>.>.>.>.>.>.>.>.>.>.>.>.>.>.>.>.>.>.>.>.>.>.>.>.>.>.>.>.>.>.>.>.>.>.>.>.",
">.>.>.>.>.>.>.>.>.>.>.>.>.>.>.>.>.,.>.>.>.>.,.>.>.>.>.>.>.>.>.>.>.>.>.>.>.>.>.>.>.>.>.>.>.>.>.>.>.>.>.>.>.>.>.>.>.>.>.>.>.>.>.>.>.>.>.>.>.>.>.>.>.>.>.>.>.>.>.>.>.>.>.>.>.>.>.>.>.>.>.>.>.>.>.>.>.>.>.>.>.>.>.,.>.>.>.>.>.>.>.>.>.>.>.>.>.>.>.>.>.>.>.>.>.>.>.>.",
">.>.>.>.>.>.>.>.>.>.>.>.>.>.>.>.>.>.>.>.>.>.>.>.>.>.>.>.>.>.>.>.>.>.>.>.>.>.>.>.>.>.>.>.>.>.>.>.>.>.>.>.>.>.>.>.>.>.>.>.>.>.>.>.>.>.>.>.>.>.>.>.>.>.>.>.>.>.>.>.>.>.>.>.>.>.>.>.,.>.>.>.>.,.>.>.>.>.>.>.>.>.>.>.>.>.>.>.,.>.>.>.>.>.>.>.>.>.>.>.>.>.>.>.>.>.>.>.",
">.>.>.>.>.>.>.>.>.>.>.>.>.>.>.>.>.>.>.>.>.>.>.>.>.>.>.>.>.>.>.>.>.>.>.>.>.>.>.>.>.>.>.>.>.>.>.>.>.>.>.>.>.>.>.>.>.>.>.>.>.>.>.>.>.>.>.>.>.>.>.>.,.>.>.>.>.>.>.>.>.>.>.>.>.>.,.>.>.>.>.>.>.>.>.>.>.>.>.>.>.>.>.>.>.>.>.>.>.>.>.>.>.>.>.>.>.>.>.>.>.>.>.>.>.,.>.>.",
">.>.>.>.>.>.>.>.>.>.>.>.>.>.>.,.>.>.>.>.>.>.>.>.,.>.>.>.>.>.>.>.>.>.>.>.>.>.>.>.>.>.>.>.>.>.>.>.>.>.>.>.>.>.>.>.>.>.>.>.,.>.>.,.>.>.>.>.>.>.>.>.>.>.>.>.>.>.>.>.>.>.>.>.>.>.>.>.>.>.>.>.>.>.>.>.>.>.>.>.>.>.>.>.>.>.>.>.>.>.>.>.>.>.>.>.>.>.>.>.>.>.>.>.>.>.>.>.",
">.>.>.>.>.>.>.>.>.>.>.>.>.>.>.>.>.>.>.>.>.>.>.>.>.>.>.>.>.>.>.>.>.>.>.>.>.>.>.>.>.>.>.>.>.>.>.>.>.>.>.>.>.>.>.>.,.>.>.>.:.,.,.:.>.>.>.>.>.>.,.>.>.>.>.>.>.>.>.>.>.>.>.>.>.>.>.>.>.>.>.>.>.>.>.>.>.,.>.>.>.>.>.>.>.>.>.>.>.>.>.>.>.>.>.>.>.>.>.>.>.>.>.>.>.>.>.>.",
">.>.,.>.>.>.>.>.>.>.>.>.>.>.>.>.>.>.>.>.>.>.>.>.>.>.>.>.>.>.>.>.>.>.>.>.>.>.>.:.>.>.>.>.>.>.>.>.2.>.>.>.>.>.>.>.>.>.>.>.>.>.,.:.>.>.>.>.>.>.>.>.>.>.>.>.>.>.>.>.>.>.>.>.>.>.>.>.>.>.>.>.>.>.>.>.>.>.>.>.>.>.>.>.>.>.>.,.>.>.>.>.>.>.>.,.>.>.>.>.>.>.>.>.>.>.>.>.",
">.>.>.>.,.>.>.>.>.>.>.>.>.>.>.>.>.>.>.>.>.>.>.>.,.>.>.>.>.>.>.>.,.:.,.2.<.>.:.2.2.:.>.,.,.,.,.,.>.>.:.=.>.-.,.:.>.-.1.,.-.,.>.,.>.>.>.>.>.>.>.>.>.>.>.>.>.>.>.>.>.>.>.>.>.>.>.>.>.>.>.>.>.>.>.>.>.>.>.>.>.>.>.>.>.>.>.>.>.>.>.>.>.>.>.>.>.>.>.>.>.>.>.>.>.>.>.>.",
">.>.>.>.>.>.>.>.>.>.>.>.>.>.>.>.>.>.>.>.>.>.>.>.>.>.>.,.,.>.>.>.:.2.:.:.2.<.>.2.-.,.,.=.X.` Q P C l a q 6 T >.,.,.1.:.:.,.>.:.,.>.>.>.>.>.>.>.>.>.>.>.>.>.>.>.>.>.>.>.>.>.>.>.>.>.>.>.>.>.>.,.>.>.>.>.>.>.>.>.>.>.>.,.>.>.>.>.>.>.>.>.>.>.>.>.>.>.>.>.>.>.>.>.>.",
">.>.>.>.>.>.>.>.>.>.>.>.>.>.>.>.>.>.>.>.>.>.>.>.>.>.>.,.>.>.>.>.:.,.:.,.:.:.2.:.-.} H y = o .           o T 1.>.,.:.,.2.>.>.>.>.>.>.>.>.>.>.>.>.>.>.>.>.>.>.>.>.>.>.>.,.>.>.>.>.>.>.>.>.>.>.>.>.>.>.>.>.>.>.>.>.>.>.>.>.>.>.>.>.>.>.>.>.>.>.,.>.>.>.,.>.>.>.>.>.",
">.>.>.>.>.>.>.>.>.>.>.>.>.>.>.>.>.>.>.>.>.>.>.>.>.,.>.,.>.>.>.>.,.,.1.1.:.>.&.Q f >     o             + N *.2.:.>.>.,.-.>.,.>.>.>.>.>.>.>.>.>.>.>.>.>.>.>.>.>.>.>.>.>.>.>.>.>.>.>.>.>.>.>.>.>.>.>.>.>.>.>.>.>.>.>.>.>.>.>.>.>.>.>.>.>.>.>.>.>.>.>.>.>.>.>.>.>.>.",
">.>.>.>.>.>.>.>.>.>.>.,.>.>.>.>.>.>.>.>.>.>.>.>.,.,.,.>.>.>.>.>.,.>.;.<.*.Y w o     .                 > T %.%.,.,.>.,.2.,.-.>.>.>.>.>.,.>.>.,.>.>.>.>.>.>.,.>.>.>.>.>.>.>.>.>.>.>.>.>.>.>.>.>.>.>.>.>.>.>.>.>.>.>.>.>.>.>.>.>.>.>.>.>.>.>.>.>.>.>.>.>.>.>.>.>.>.",
">.>.>.>.>.>.>.>.>.>.>.>.>.>.>.>.>.>.>.,.>.>.>.>.>.>.>.:.>.,.,.>.>.2.*.Y t & .                       X   X ; s I @.1.>.-.-.>.2.>.>.>.>.>.>.>.>.>.>.>.>.>.>.>.>.>.>.>.>.>.>.>.>.>.>.>.>.>.>.>.>.>.>.>.>.>.>.,.>.>.>.>.>.>.>.>.>.,.>.>.>.,.>.>.>.>.>.>.>.>.>.>.>.>.",
">.>.>.>.>.>.>.>.>.>.>.>.>.>.>.>.>.>.>.>.>.>.>.>.>.>.:.,.,.,.,.:.<.^ i X o o                     .               q ) ,.>.,.,.>.>.>.>.>.>.>.>.>.>.>.>.>.>.>.>.>.>.>.>.>.>.>.>.>.>.>.>.>.>.>.>.>.>.>.>.>.>.>.>.>.>.>.>.>.>.>.>.>.>.>.>.>.>.>.>.>.>.>.>.>.>.>.,.>.>.",
",.>.>.>.>.>.>.>.>.>.>.>.>.>.>.>.>.>.>.>.>.>.>.>.>.>.>.:.,.,.:.=.C =                                     .         > Q ,.>.,.>.>.>.>.>.>.>.>.>.>.>.>.>.>.>.>.>.>.>.>.>.>.>.>.>.>.>.,.>.>.>.>.>.>.>.>.>.>.>.>.>.>.>.>.>.>.>.>.>.>.>.>.>.>.>.>.>.>.>.>.>.>.>.>.>.>.",
">.,.>.>.>.>.>.>.>.>.>.>.>.>.>.>.>.>.>.>.>.>.>.>.,.,.:.,.>.2.+.g .                                                   ; R :.>.2.:.>.>.>.>.>.>.>.>.>.>.>.>.>.>.>.>.>.>.>.>.>.>.>.>.>.>.>.>.>.>.>.>.>.>.>.>.>.>.>.>.>.>.,.>.>.>.>.>.>.>.>.>.>.>.>.>.,.>.>.>.>.>.>.>.",
">.>.>.>.>.>.>.>.>.>.>.>.>.>.,.>.>.>.>.>.>.>.>.>.-.>.2.=.2.*.k             .               .                 .       . > ! 2.-.2.>.>.>.>.>.>.>.>.>.>.>.>.>.>.>.>.>.>.>.>.>.>.>.>.>.>.>.>.,.>.>.>.>.>.>.>.>.>.>.>.>.>.>.>.>.>.>.>.>.>.>.>.>.>.>.>.>.>.>.>.>.>.>.>.",
">.>.>.>.>.>.>.>.>.>.>.>.>.>.>.>.>.>.>.>.>.>.>.>.:.,.,.,.>.W .                               X       .         .         3  .,.>.>.>.>.>.,.>.>.>.>.>.>.>.>.>.>.>.>.>.>.>.>.>.>.>.>.>.>.>.>.>.>.>.>.>.>.>.>.>.>.>.>.>.>.>.>.>.>.>.>.>.>.>.>.>.>.>.>.>.>.>.>.>.>.>.",
">.>.>.>.>.>.>.>.>.>.>.>.>.>.>.>.>.>.>.>.>.>.>.>.,.,.-.2.%.9 * % . * O   .                 .     % 2 0 9 ; . .             g =.,.>.>.>.>.>.>.>.>.>.>.>.>.>.>.>.>.>.>.>.>.>.>.>.>.>.>.>.>.>.>.>.>.,.>.>.>.>.>.>.>.>.>.>.>.>.>.>.>.>.>.>.>.>.>.>.>.>.>.>.>.>.>.>.>.",
">.>.>.>.>.>.>.>.>.>.>.>.>.>.>.>.>.>.>.,.>.>.>.>.:.1.,.:.Q + 1 S / | G O .     .             . x ) $.;.*.O.I 2 .         . o ! ,.>.>.>.>.>.>.>.>.>.>.>.>.>.>.>.>.>.>.>.>.>.>.>.>.>.>.>.>.>.>.>.>.>.>.>.>.>.,.>.>.>.>.>.>.>.>.>.>.>.>.>.>.>.>.>.>.>.>.>.>.>.>.>.,.",
">.>.>.>.>.>.>.>.>.>.>.>.>.>.>.>.>.>.>.>.>.>.>.>.1.-.1.:.l + ^ 2.4.2.%.6                     M =.1.1.:.&.*.2. .8       .     f :.>.>.>.>.>.>.>.>.>.>.>.>.>.>.>.>.>.>.>.>.>.>.>.>.>.>.>.>.>.>.>.>.>.>.>.>.>.>.>.>.>.>.>.>.>.>.>.>.>.>.>.>.>.>.>.>.>.>.>.>.>.>.>.>.",
">.>.>.>.>.>.>.>.>.>.>.>.>.>.>.>.>.>.>.>.>.>.>.>.:.>.1.#.9 G >.;.! P _ t                   5 +.,.>.>.) V y { 1.` =           =  .>.>.>.>.>.>.>.>.>.>.2.>.>.>.>.>.>.>.>.>.>.>.>.>.>.>.>.>.>.>.>.>.>.>.>.>.>.>.>.>.>.>.>.>.>.>.>.,.>.>.>.,.>.>.>.>.>.>.>.>.>.>.>.>.",
">.>.>.>.>.>.>.,.>.>.>.>.>.>.>.>.>.>.>.>.>.>.>.>.1.:.1.] 0 o.1.W % % 0 @               .   V ,.,.:.J f p z M $.>.x .           F >.>.>.>.>.>.>.>.>.>.>.>.>.>.>.>.>.>.>.>.>.>.>.>.>.>.>.>.>.,.>.>.>.>.>.>.>.>.>.>.>.>.>.>.>.>.>.>.>.>.>.>.>.>.>.>.>.>.>.>.>.>.>.>.",
">.>.>.>.>.>.>.>.>.>.>.>.>.>.>.>.>.>.>.>.>.>.>.>.>.>.,.R s -.%.q * ) O.i                 . ( >.2.` * O I 1._ W 2.( +     .     d -.,.,.>.>.>.>.>.>.>.>.>.>.>.>.>.>.>.>.>.>.>.>.>.>.>.,.>.>.>.>.>.>.>.>.>.>.>.>.,.>.>.>.>.>.>.>.>.>.>.>.>.>.>.>.>.>.>.>.>.>.>.>.>.",
">.>.>.>.>.,.>.>.>.>.>.,.>.>.>.>.>.>.>.>.>.>.>.>.,.:.2.F b ,.~ 8 3 / P > X             + *  .2.:.H . X Y :.{ x *.$.5           3 @.,.>.:.>.>.>.>.>.>.>.>.>.>.>.>.>.>.>.>.>.>.>.>.>.>.>.>.>.>.>.>.>.>.>.>.>.>.>.>.>.>.>.>.>.>.>.>.>.>.>.>.>.>.>.>.>.>.>.>.>.>.>.>.",
">.>.>.>.>.>.>.>.>.>.>.>.>.>.>.>.>.>.>.>.,.>.>.>.>.,.>.S H 3.) - . + . + %   .       . O 6 %.<.<.G % * > c e 6 o.<.d           @ ) 2.:.>.2.:.>.:.>.>.>.>.>.>.>.>.>.>.>.>.>.>.>.>.>.>.>.>.>.>.>.>.>.>.>.>.>.>.>.>.>.>.>.>.>.>.>.>.>.>.>.>.>.>.>.,.>.>.>.>.>.>.>.>.",
">.>.>.>.>.>.>.>.>.>.>.>.>.>.>.>.>.>.>.>.>.>.>.>.,.>.:.M E 3.K .     ; d d >             w =.:.2.G * O     & t | 1.m             P 1.>.>.>.>.>.:.>.>.>.>.>.>.>.>.>.>.>.>.>.>.>.>.>.>.>.>.>.>.>.>.>.>.>.>.>.>.>.>.>.>.>.>.>.>.>.>.>.>.>.>.>.>.>.>.>.>.,.>.>.>.>.>.",
">.>.>.>.>.>.>.>.>.>.>.>.>.>.>.,.>.>.>.>.>.>.>.>.,.>.-.b T T 4 o 7 H o.=.;. .V 6         5 o.2.>.P +         6 $.,.x             b >.:.>.:.>.>.2.>.>.>.>.>.>.>.>.>.>.>.>.,.>.>.>.>.>.>.>.>.>.>.>.>.>.>.>.>.>.>.>.>.>.,.>.>.>.>.>.>.>.>.>.>.>.>.>.>.>.>.>.>.>.>.>.",
",.>.>.>.>.>.>.>.>.>.>.>.>.>.>.>.>.>.>.>.>.>.>.>.,.,.,.z - + 0 T *.:.:.2.:.,.1.O.B >       W 1.1./ t + X   X n ;.*.0   .         u =.:.2.>.>.>.>.>.>.>.>.>.>.>.>.>.>.>.>.>.>.>.>.>.>.>.>.>.>.>.>.>.>.>.>.>.>.>.>.>.>.>.>.>.>.>.>.>.>.>.>.>.>.>.>.>.>.>.>.>.>.>.>.",
">.>.>.>.>.>.>.>.>.>.>.>.>.>.>.>.>.>.>.>.>.>.>.>.>.,.&.w - K @.3.>.2.>.,.>.1.>.2.<.Q > X   t $.<.%.j + ; 1 p #.4.) *             7 @.2.:.2.:.>.>.>.>.>.>.>.>.>.>.>.>.>.>.>.>.>.>.>.>.>.>.>.>.>.>.>.>.>.>.>.>.>.>.>.>.>.>.>.>.>.>.>.>.,.>.>.>.>.>.>.>.>.>.,.>.>.>.",
">.>.>.>.>.>.>.>.>.>.>.>.>.>.>.>.>.>.>.>.>.>.>.,.,.} u u ) >.1.:.,.:.>.>.>.;. .$.>.>._ >   X c ;.:.| n x T %.<.>.M   X           = ..2.:.>.>.2.:.>.>.>.>.>.>.>.>.>.>.>.>.>.>.>.>.>.>.>.>.>.>.,.>.>.,.>.>.>.>.>.>.>.>.>.>.>.>.>.>.>.>.>.>.>.>.>.>.>.>.>.>.>.>.>.>.",
">.>.>.>.>.>.>.>.>.>.>.>.>.>.>.>.>.,.>.>.,.,.:.,.! 4 z O.,.,.>.,.,.2.:.,.{ c q J ,.>.,.I .   . x @.2.>.>.>.:.2.{ > o           . # ) 2.,.>.>.,.>.>.>.>.>.>.>.>.>.>.>.>.>.>.>.>.>.>.>.>.>.>.>.>.>.>.>.>.>.>.>.>.>.>.>.>.>.>.>.>.>.>.>.>.>.>.>.>.>.>.>.>.>.>.>.>.>.",
">.>.>.>.>.>.>.>.>.>.,.>.>.>.>.>.>.>.:.,.=.3.:.H < N @.1.:.,.>.-.-.-.2.:.T _ X.$.>.>.2._ % .     y _ >.>.2.2...a               O + E ,.>.>.>.>.>.>.,.>.>.>.>.>.>.>.>.>.>.>.>.>.>.>.>.>.,.>.>.>.>.>.>.>.>.>.>.>.>.>.>.>.>.>.>.>.>.>.>.>.>.>.>.>.>.>.>.>.>.>.>.>.>.",
">.>.>.>.>.>.>.>.>.>.>.>.>.>.>.>.>.,.>.>.3.=.N - J &.3.,.2.:.,.>.>.2.,.:.:.1.:.<.>.2.:.~ * 9 X     > h U U l 6                   X S >.,.>.>.>.>.>.>.>.>.>.>.>.>.>.>.>.>.>.>.>.>.>.>.>.>.>.>.>.>.>.>.>.>.>.>.>.>.>.>.>.>.,.>.>.>.>.>.>.>.>.>.>.>.>.>.>.>.>.>.>.>.",
">.>.>.>.>.>.>.>.>.>.>.>.>.>.>.>.>.,.:.3.@.N - K =.2.,.>.,.:.-.2.2.=.,.:.1.:.1.<.:.>.>.v 9 ) >         X .                         b ,.>.,.>.:.>.>.>.>.>.>.>.>.>.>.,.>.>.>.>.>.>.>.>.>.>.>.>.>.>.>.>.>.>.>.>.>.>.>.>.>.>.>.>.>.>.>.>.>.>.>.>.>.>.>.,.>.>.>.>.>.>.",
">.>.>.>.>.>.>.>.>.>.,.>.>.>.>.>.:.>.>.-.b + K :.>.1.-.,.2.:.3.-.-.,.>.1.:.>.:.<.2.>.( 1 P $.2                                     f 1.:.>.>.>.>.>.>.>.>.>.>.>.>.>.>.>.>.>.>.>.>.>.>.>.>.>.>.>.>.>.>.>.>.>.>.>.>.>.>.>.>.>.>.>.>.>.>.>.>.>.>.>.>.>.>.>.>.>.>.>.>.",
">.>.>.>.>.>.>.>.>.>.>.>.>.>.>.>.2.-.3.F $ K >.:.,.:.2.>.:.>.:.3.2.2.:.>.<.<.:.*.{ R 7 n :. .& X                                   t *.1.>.,.>.>.>.>.>.>.>.>.>.>.>.>.>.>.,.>.>.>.>.>.>.>.>.>.>.>.>.>.>.>.>.>.,.>.>.>.>.>.,.>.>.>.>.>.,.>.>.>.>.>.>.>.>.>.>.>.>.>.",
">.>.>.>.,.>.>.>.>.>.>.>.>.>.>.>.,.>.) > b -.>.2.,.3.>.>.,.=.@.} ) ) R S M f i 5 , > B =.:.B                                       3 #.1.>.>.>.>.>.>.>.>.>.>.>.>.>.>.>.>.>.>.>.>.>.>.>.>.>.>.>.>.>.>.>.>.>.>.>.>.>.>.>.>.>.>.>.>.>.>.>.>.>.>.>.>.>.>.>.>.>.>.>.>.",
">.>.>.>.>.>.>.>.>.>.>.>.>.>.>.>.,.-.s h *.-.+.' E K b h y 4 < < $ o   3 t j n A U  .;.*.G %                                       >  .1.>.>.>.>.>.>.>.>.>.>.,.>.>.>.>.>.>.>.>.>.>.>.>.>.>.>.>.>.>.>.>.>.>.>.>.>.>.>.>.>.>.>.>.>.>.>.>.>.>.>.>.>.>.>.>.>.,.>.>.>.",
">.>.>.>.>.>.>.>.>.>.>.>.>.>.>.>.>.( 3 J Z u < , 7 t f c 3             > s V Y _ { Q B t +                                           ^ 2.,.<.,.>.>.>.>.>.>.>.>.>.>.>.>.>.>.,.>.>.>.>.>.>.>.>.,.>.>.>.>.>.>.>.>.>.>.>.>.>.>.>.>.>.,.>.>.>.>.>.>.>.>.>.>.>.>.>.>.>.",
">.>.>.>.>.>.>.>.>.>.>.>.>.>.>.>.2.( , 6 y v K ' O.*.1.$.5         X           * % .             .     .                       .     m ,.;.2.;.,.>.>.>.>.>.>.>.>.>.>.>.>.>.>.>.>.>.>.>.>.>.>.>.>.>.>.>.>.,.>.>.>.>.>.>.>.>.>.>.>.>.>.>.>.>.>.>.>.>.>.>.>.>.>.>.>.",
">.>.>.>.>.>.>.>.>.>.>.>.>.>.>.>.:.=.[ +.%.:.2.2.>.2.1.Y + X             X                   X                         .             6 #.2.:.2.>.>.>.>.>.>.>.>.>.>.>.>.>.>.>.>.>.>.>.>.>.>.>.>.>.>.>.>.>.>.>.>.>.>.>.>.>.>.>.>.>.>.>.>.>.>.>.>.>.>.>.>.>.>.>.,.>.",
">.>.>.>.>.>.>.>.>.>.>.>.,.>.>.>.>.:.2.-.,.2.:.:.>.,.:.n . .           X + O                             . X               . X         m ;.;.>.>.>.>.>.>.>.>.>.>.>.>.>.>.>.>.>.>.>.>.>.>.>.>.>.>.>.>.>.>.>.>.>.>.>.>.>.>.>.>.>.>.>.>.>.>.>.>.>.>.>.>.>.>.>.>.>.>.",
">.>.>.>.>.>.>.>.>.>.>.>.>.>.>.>.>.>.2.>.,.:.:.,.>.>.%.6 5 .                                         .             > 6 p s 0 >       > = Y 2.,.:.>.>.>.>.>.>.>.>.>.>.>.>.>.>.>.>.>.>.>.>.>.>.>.>.,.>.>.>.>.>.>.>.>.>.>.>.>.>.>.>.>.>.>.>.>.>.>.>.>.>.>.>.>.>.>.>.",
",.>.>.>.>.,.>.>.>.>.>.>.>.>.>.>.>.>.-.2.,.>.,.>.>.>.` >                                                     X 9 H  .&.*.-.=.' N + . O   , { *.2.>.>.,.>.>.>.>.>.>.,.>.>.>.>.>.>.,.>.>.>.>.>.>.>.>.>.>.>.>.>.>.>.>.>.>.>.>.,.>.>.>.>.>.>.>.>.>.>.>.>.>.>.>.>.>.>.",
">.>.>.>.>.>.>.>.>.>.>.>.>.>.>.>.>.,.>.>.>.,.>.>.:.2.P                                                     + c $.,.1.:.,.2.>.2.:.Q >       w #.2.>.>.>.>.>.>.>.>.>.>.>.>.>.>.>.>.>.>.>.>.>.>.>.>.>.>.>.>.>.>.>.>.>.>.>.>.>.>.>.>.>.>.>.>.>.>.>.,.>.>.>.>.>.>.>.>.",
">.>.>.>.>.>.>.>.>.>.>.>.>.>.>.>.>.>.,.:.,.>.>.,.,.:.l         .                                     .   . S :.1.,.:.,.,.>.>.:.,.<._ 3       v =.>.>.>.>.>.>.>.>.>.>.>.>.>.>.>.>.>.>.>.>.>.>.>.>.>.>.>.>.>.>.>.>.>.>.>.>.>.>.>.>.>.>.>.>.>.>.>.>.>.>.>.>.>.>.>.>.",
">.>.>.>.>.>.>.>.>.>.>.>.>.>.>.>.>.>.>.>.>.>.>.>.<.&.5                                                   h *.,.,.>.>.>.>.>.>.>.>.:.1.[ 6     O H :.1.>.,.,.,.:.>.,.>.>.>.>.>.>.>.>.>.>.>.>.>.>.>.>.>.>.>.>.>.>.>.>.>.>.>.>.>.>.>.>.>.>.>.>.>.,.>.>.>.>.>.>.>.>.>.",
">.>.>.>.>.>.>.>.>.>.>.>.>.>.>.>.,.>.>.>.>.>.>.>.>.{ :                                                 < } >.,.:.>.>.>.>.>.>.>.>.1.:.1. .0     > ^ :.,.,.:.,.2.>.>.>.>.>.>.>.>.>.>.>.>.>.>.>.>.>.>.>.>.>.>.>.>.>.>.>.>.>.,.>.>.>.>.>.>.>.>.>.>.>.>.>.>.>.>.>.>.>.",
">.>.>.>.>.>.>.>.>.>.>.>.>.>.>.>.>.>.>.>.>.>.>.>.1.Y .                                                 B 1.,.,.,.>.>.>.>.>.>.>.>.:.1.1.:. .q     2 ` 2.>.:.>.>.:.>.>.>.>.>.>.>.>.>.>.>.>.>.>.>.>.>.,.>.>.>.>.>.>.>.>.>.>.>.>.>.>.>.>.>.>.>.>.>.>.>.>.>.>.>.>.>.>.",
">.>.>.>.>.>.>.,.>.>.>.>.>.>.>.>.>.>.>.>.>.>.>.,.>.M                                                 3 ..-.,.,.:.>.>.>.>.>.>.>.>.>.1.:.:.1. .6     0 } ,.2.:.2.:.>.>.>.>.>.>.>.>.,.>.>.>.>.,.>.>.>.>.>.>.>.>.>.>.>.>.>.>.>.>.>.>.>.>.>.>.>.>.>.>.>.>.>.>.>.>.>.>.",
">.>.>.>.>.>.>.>.>.>.>.>.>.>.>.>.>.>.>.>.>.>.,.>.;.f                                                 c :.,.,.:.,.>.>.>.>.>.>.>.>.>.>.>.,.>.-.{ 2     d %.>.>.-.2.>.>.>.>.>.>.>.>.>.>.>.>.>.>.>.>.>.>.>.>.>.>.>.>.>.>.>.>.>.>.>.>.>.>.>.>.>.>.>.>.>.>.>.>.>.>.>.,.",
">.>.>.>.>.>.>.>.>.>.>.,.>.>.>.>.>.>.>.>.>.>.>.,.%.q .                                               T 1.1.,.:.,.>.>.>.>.>.>.>.>.,.:.>.>.>.,.>.( =     D ,.2.:.:.>.>.>.>.>.>.>.>.>.>.>.>.>.>.>.>.>.>.>.>.>.>.>.>.>.>.>.>.>.>.>.>.,.>.>.>.>.>.>.>.>.>.>.>.>.>.>.>.",
">.>.>.>.>.>.>.>.>.>.>.>.>.>.>.>.>.>.>.:.>.>.,.>. ., .                                             + ` 1.:.:.,.,.>.>.>.>.>.>.>.>.:.,.>.>.,.>.>.>.P .   2 { 2.2.:.>.>.>.>.>.>.>.>.>.>.>.>.>.>.>.>.>.>.>.>.>.>.>.>.>.>.>.>.>.>.>.>.>.>.>.>.>.>.>.>.>.>.>.>.>.>.>.>.",
">.>.>.>.>.>.>.>.>.>.>.>.>.>.>.>.>.>.>.>.:.>.>.2.~ .                                               >  .>.2.:.:.,.>.>.>.>.>.>.>.>.,.-.,.>.,.>.>.,.*.g     s @.2.:.>.>.>.>.>.>.>.>.>.>.>.>.>.>.>.>.>.>.>.>.>.,.>.>.>.>.>.>.>.>.>.>.>.>.>.>.>.>.>.>.>.>.>.>.>.>.>.>.",
">.,.>.>.>.>.>.>.>.>.>.>.>.>.>.>.>.>.>.>.,.>.,.,.U .                                               2 O.<.,.>.,.>.>.,.,.>.>.>.>.>.:.2.>.>.>.>.>.:.:.[ :     D 1.>.>.2.-.2.>.:.2.>.>.>.>.>.>.>.>.>.>.>.>.>.>.>.>.>.>.>.>.>.>.>.>.>.>.>.>.>.>.>.>.>.>.>.,.>.>.>.>.>.",
">.>.>.>.>.>.>.>.>.>.>.>.,.>.>.>.>.>.>.>.:.>.,.,.J                                                 6 %.>.,.,.%.S { ,.:.:.,.>.,.>.>.>.:.:.>.:.>.2.1.:.K #   > _ :.>.>.>.>.>.>.:.:.>.,.>.>.>.>.>.>.>.>.>.>.>.>.>.,.>.>.>.>.>.,.>.>.>.>.>.>.>.>.>.>.>.>.>.>.>.>.>.>.",
">.>.>.>.>.>.>.>.>.>.>.>.>.>.>.>.>.>.>.>.>.>.>.,.B                                                 0 :.>.>.>.) * < / 3.2.>.>.-.>.2.:.>.2.>.>.<.:.:.1.*.h     i $.2.=.>.2.:.>.>.:.>.>.>.>.>.>.>.>.>.>.>.>.>.>.>.>.>.>.>.>.>.>.>.>.>.>.>.>.>.>.>.>.>.>.>.>.>.>.>.>.",
">.>.>.>.>.>.>.>.>.>.>.>.>.>.>.>.:.>.>.>.>.>.:.>.m                                                 f :.>.>.>.I   o = F =.>.:.2.>.:.:.>.>.:.>.,.,.1.:.1.[ =     m :.>.:.2.:.>.2.>.>.>.>.>.>.>.>.>.>.>.>.>.>.>.>.>.>.>.>.>.>.>.>.>.>.>.>.,.>.>.>.>.>.>.>.>.>.>.>.>.",
">.>.>.>.>.>.>.>.>.>.>.>.>.>.>.>.>.>.>.>.>.:.:.,.m                                                 P :.,.>.2.Y .     O k  .,.,.,.>.>.2.2.,.:.>.,.,.>.:.>.S o   & E 2.:.:.>.>.,.:.>.>.>.>.>.>.>.>.>.>.>.>.>.>.>.>.>.>.>.>.>.,.>.>.>.>.>.>.>.>.>.>.>.>.>.>.>.>.>.>.",
">.>.>.>.>.>.>.,.>.>.>.>.>.>.>.>.>.>.>.>.>.>.>.>.B                                               5 +.>.>.:.2./ O   .     < F #.:.2.:.=.=.,.:.:.,.=.1.:.>.=.f     7 +.2.>.,.>.>.>.>.>.>.>.>.>.>.>.>.>.>.>.>.>.>.>.>.>.>.>.>.>.>.>.>.>.>.>.>.>.>.>.>.>.,.>.>.>.>.>.",
">.>.>.>.>.>.>.>.>.>.>.>.>.>.>.>.>.>.>.>.>.>.,.>.D                                             X G ,.>.>.:.,.X.>           . 8 E %.2.2.2.1.,.:.>.,.,.1.:.2.` >   . b @.2.>.>.>.2.>.>.>.>.>.>.>.>.>.>.>.>.>.>.>.>.>.>.>.>.>.>.>.>.>.>.>.>.>.>.>.>.>.>.>.>.>.>.>.>.",
">.>.>.>.>.>.>.>.,.>.>.>.>.>.>.>.>.>.>.>.:.>.,.2.I                                           . > O.>.,.>.:.,.:.e               . y U +.:.1.,.:.,.:.>.>.1.;.1.Y O o $ ` >.>.>.,.>.>.>.>.>.>.>.>.>.,.>.>.>.>.>.>.>.>.>.>.>.>.>.>.>.>.>.>.>.>.>.>.>.>.>.>.>.>.>.>.>.",
">.>.>.>.>.>.>.>.>.>.>.>.>.>.>.>.>.>.>.>.>.>.>.>.) #                                       . . v >.:.>.>.:.>.2.Z                   o 7 H O.>.<.,.2.:.>.>.>.1.&.k     a *.<.>.>.:.>.>.>.>.>.>.>.>.>.>.>.>.>.>.>.>.>.>.>.>.>.>.>.>.>.>.>.>.>.>.>.>.>.>.>.>.>.>.>.>.",
">.>.>.>.>.>.,.>.>.>.>.>.>.>.>.>.>.>.>.>.>.>.>.>.O.<           .                             , { 2.:.2.>.2.>.<._ $     .     X           1 m _ *.:.2.<.:.>.1.1.[ : .   L 2.:.4.>.>.>.>.>.>.>.>.>.>.>.>.>.>.,.>.>.>.>.>.>.>.>.>.>.>.>.>.>.>.>.>.>.>.>.>.>.>.>.>.>.",
">.>.>.>.>.>.>.>.>.>.>.>.>.>.>.>.>.>.>.>.>.>.>.>.*.f             X           X   X           J =.>.:.2.:.<.:.>.:.a                     .     * y J ..:.1.1.:.:.:.B   X 6 #.>.;.>.>.>.>.>.>.>.>.>.>.>.>.>.>.>.>.>.>.>.>.>.>.>.>.>.>.>.,.>.>.>.>.,.>.>.>.>.>.>.>.>.",
">.>.>.>.>.>.>.>.>.>.>.>.>.>.>.>.>.>.>.>.>.>.>.>.,.C           .             .       .     w @.>.:.>.>.:.:.2.>.,.! O                             O > f T o.*.1.5.O.9     A ,.>.>.>.<.>.>.>.>.>.>.>.>.>.>.>.>.>.>.>.>.>.>.>.>.>.>.>.>.>.>.>.>.>.>.>.>.>.>.>.>.>.,.",
">.>.>.>.>.>.>.>.>.,.>.>.>.>.>.>.>.>.>.>.>.>.>.>.,./ X X     .           .         .     < { 2.>.>.2.:.>.>.,.,.>.&.t   .                               O > j H / %.F X X 2 X.,.<.>.>.:.,.>.>.>.>.>.>.>.>.>.>.>.>.>.>.>.,.>.>.>.>.>.>.>.>.>.>.>.>.>.>.>.>.>.>.>.>.",
">.>.>.>.>.>.>.>.>.>.>.>.>.>.>.,.,.>.>.>.>.>.>.>.:.&.<     X 2 6     O               O 2 ( >.>.>.>.>.:.2.:.>.,.>.1./ +                                         * > 2       C :.,.>.>.<.>.>.>.>.>.,.>.>.>.>.>.>.>.>.>.>.>.>.>.>.>.>.>.>.>.>.>.>.>.>.>.>.>.>.>.>.>.",
">.>.>.>.>.>.>.>.>.>.>.>.>.>.>.>.>.>.>.>.>.>.>.>.>.>.z       6 ^ 0 + #           o O l O.>.=.2.:.:.:.:.2.>.;.>.>.>.>.x                                     .         .     >  .,.>.>.>.>.>.>.>.>.>.>.>.>.>.>.>.>.>.>.>.>.>.>.>.>.>.>.>.>.>.>.>.>.>.>.>.>.>.>.>.>.",
">.,.>.>.>.>.>.>.>.>.>.>.>.>.>.>.>.>.>.>.>.>.>.>.,.>.E X X X X _  .p +           , P -.,.>.>.>.>.2.:.2.:.,.>.>.>.>.1.O.6     .                                               l :.>.>.>.>.>.>.,.>.>.>.>.>.>.>.>.>.>.>.>.>.>.>.>.>.>.>.>.>.>.>.>.>.>.>.>.>.>.>.>.>.",
">.>.>.>.>.>.>.>.>.>.>.>.>.>.>.>.>.>.>.>.>.>.>.>.,.:.$.2   - , b 1.$.) Z k d y C +.=.2.>.>.>.:.>.:.2.>.>.>.>.>.>.:.,.,.( $ .                                                 * T <.:.>.>.1.:.1.:.>.>.>.>.>.>.>.>.>.>.>.>.>.>.>.>.>.>.>.>.>.>.>.,.>.>.>.>.>.>.>.>.",
">.>.>.>.>.>.>.>.,.>.>.>.>.>.>.>.>.>.>.>.>.>.>.>.:.,.,.N   O + 2 ..1.:.,.-.:.,.>.=.>.:.-.>.2.>.>.:.:.>.>.>.>.>.>.>.>.:.:.P o   .           .                                   6 #.>.>.>.:.,.>.,.>.>.>.>.>.>.>.>.>.>.>.>.>.>.>.>.>.>.>.>.>.>.>.>.,.>.>.>.>.>.>.>.",
">.>.>.>.>.>.>.>.>.>.>.>.>.>.>.>.>.>.>.>.>.>.>.>.,.:.1.] >       C 1.,.1.>.<.;.,.2.2.>.=.>.>.>.>.2.2.:.>.>.>.>.>.,.2.,.:.=.S .                                                   A <.<.>.>.2.:.>.>.>.>.>.>.>.>.>.>.,.>.>.,.>.>.>.>.>.>.>.>.>.>.>.>.>.>.>.>.>.>.>.",
">.>.>.>.>.>.>.>.>.>.>.>.>.>.>.>.>.>.>.>.>.>.>.,.,.>.,.:.b       4 O.:.>.>.<.<.2.>.=.2.2.>.:.>.>.:.:.>.>.>.>.>.>.:.,.:.,.>.=.Z .                                             .   > ^ 1.>.:.,.>.>.>.>.>.>.>.>.>.>.>.>.>.>.>.>.>.>.>.>.>.>.>.>.>.>.>.>.>.>.>.>.>.>.",
">.>.>.>.>.>.>.>.>.>.>.>.>.>.>.>.>.>.>.>.>.>.>.>.:.2.,.>...,       b ,.,.:.>.2.=.>.>.:.>.:.>.2.>.>.>.>.>.>.>.>.>.>.>.>.>.2.,.&.D +                                                 9 o.1.:.>.1.:.>.>.>.>.>.>.>.>.>.>.>.>.>.>.>.>.>.>.>.>.>.>.>.>.>.>.>.>.>.>.>.>.",
">.>.>.>.,.>.>.>.>.>.>.>.>.>.>.>.>.>.>.>.>.>.>.>.>.:.>.:.:.J @     $ P >.2.:.=.2.2.>.>.>.>.>.>.:.>.>.>.>.>.>.>.>.,.,.2.=.2.:.:.2.P =       .                                         x *.1.<.>.>.>.>.>.>.>.>.>.>.>.>.>.>.>.>.>.>.>.>.>.>.>.>.>.>.>.>.>.>.>.>.>.>.",
">.>.>.>.>.>.>.>.>.>.>.>.>.>.>.,.>.>.>.>.>.>.>.>.,.:.>.1.>.;.g       $ T =.>.,.,.:.>.:.2.2.:.2.:.>.>.>.>.>.>.>.>.-.>.>.2.:.:.:.:.<.( 3   +                                           O K :.<.;.>.>.>.>.>.,.>.>.>.>.>.>.>.>.>.>.>.,.>.>.>.>.>.>.>.>.>.>.>.>.>.>.>.",
">.>.>.>.>.>.>.>.>.>.>.>.>.>.>.>.>.>.>.>.>.>.>.>.>.1.:.,.:.1.+.8       * K >.,.:.>.>.>.>.>.>.=.2.>.>.>.>.>.>.>.>.>.2.>.:.,.:.2.:.>.,...p                                               > { >.,.>.>.>.>.>.>.>.>.>.>.>.>.>.>.>.>.>.>.>.>.>.>.>.>.>.>.>.>.>.>.,.>.>.",
">.>.>.>.>.>.>.>.>.>.>.,.>.>.>.>.>.>.>.>.>.>.>.>.,.>.>.>.:.2.-.{ 3   + X + F <.<.<.>.>.>.>.>.>.1.>.>.>.>.>.>.>.>.>.>.>.>.>.>.>.>.<.<.2.#.M o                                             t *.,.<.>.>.,.,.>.>.>.,.>.>.>.>.>.>.>.>.>.>.>.>.>.>.>.>.>.>.>.>.,.>.>.>.",
">.>.>.,.>.>.>.>.>.>.>.>.>.>.>.>.>.>.>.>.>.>.>.>.,.:.,.,.-.>.,.:./ > 2 >   O B *.<.>.<.>.>.:.=.1.>.>.>.>.>.>.>.>.>.>.>.>.>.>.>.>.:.<.-.>.,.I =     .                                   O . m >.,.>.>.-.-.,.>.>.-.>.>.>.>.>.>.>.>.>.>.>.>.>.>.>.>.>.>.>.>.>.>.>.>.",
">.>.>.>.>.>.>.>.>.>.>.>.>.>.>.>.>.>.>.>.>.>.>.>.>.>.>.,.>.:.,.2.>.E * > 5   O k #.>.>.>.,.2.2.:.>.>.>.>.>.>.>.>.>.>.>.>.>.>.>.>.>.>.>.>.,.,.) w                                           + T 1.>.>.2.,.>.>.>.:.>.>.>.>.>.>.>.>.>.>.>.>.>.>.>.>.>.>.>.>.>.>.>.>.",
">.>.>.>.>.>.>.>.>.>.>.>.>.>.>.>.>.>.>.>.>.>.>.>.>.>.>.>.>.>.>.-.1.>./ 1 X 2 X   r ] 1.>.:.:.:.,.>.>.>.>.>.>.>.>.>.>.>.,.>.>.,.>.>.2.-.<.>.,.,.X.g +                                         1 ] 2.:.,.,.-.>.:.2.,.>.>.>.>.>.>.>.>.>.>.>.>.>.>.>.>.>.>.>.>.>.>.>.",
">.>.>.>.>.>.>.>.>.>.>.>.>.>.>.>.>.>.>.>.>.>.>.>.>.,.,.-.>.,.>.>.>.>.>.! > 6 x &   > T ;.>.2.>.>.>.>.>.>.>.>.<.>.>.>.>.>.>.>.>.>.,.=.2.2.-.,.2.,.=.D ,                                         t +.,.:.>.>.2.-.2.>.>.>.>.>.>.>.>.>.>.>.>.>.>.>.>.>.,.>.>.>.>.>.>.",
">.>.>.>.>.>.>.>.>.>.>.,.>.>.>.>.>.>.>.,.>.>.>.>.>.>.>.>.>.>.>.,.:.>.:.2._ 3 5 B , .   V *.:.>.>.>.>.>.>.>.>.>.>.>.>.>.>.>.>.>.>.,.>.:.:.,.:.-.>.:.2.+.M ,                                   .   l %.2.>.>.>.>.:.>.>.>.>.>.>.>.>.>.>.>.>.>.>.>.>.>.>.>.>.>.>.>.>.",
">.>.>.>.>.>.>.>.>.>.>.>.>.>.>.>.>.>.>.>.>.>.>.>.,.>.-.,.,.>.-.>.1.1.>.:.,.{ q 6 H e     t ` ,.,.>.>.>.>.>.>.>.>.>.>.>.>.>.>.>.>.:.2.:.,.,.:.2.>.2.=.,.,.X.V < o                           .     o D *.2.:.:.2.:.>.>.>.>.,.>.>.>.>.>.>.>.>.,.>.>.>.>.>.>.>.>.>.>.",
">.>.>.>.>.>.>.,.>.>.>.>.>.>.>.>.>.>.>.>.>.>.>.>.>.>.,.>.>.>.,.,.>.=.1.>.:.,...t 3 I g O   ; G %.>.>.>.>.>.>.<.,.>.>.>.>.>.>.>.>.>.>.,.,.>.:.>.>.>.2.:.,.>.,.X.f                                   = E -.2.:.:.2.>.>.>.>.>.>.>.>.>.>.>.>.>.>.>.>.>.>.>.>.>.>.>.>.",
">.>.>.>.>.>.>.>.>.>.>.>.>.>.>.>.>.>.>.>.>.>.>.>.>.>.>.>.>.>.>.>.:.,.,.>.>.>.-.&.j 3 H N #     u ( :.2.,.,.:.,.:.1.:.:.,.,.:.1.,.:.,.>.2.2.;.2.<.>.>.>.:.1.,.E <                                   * 3 / 1.>.,.:.>.>.>.>.>.>.>.>.>.>.>.>.>.>.>.>.>.>.>.>.>.>.>.>.",
">.>.>.>.>.>.>.>.>.>.>.>.>.>.>.>.>.>.>.>.>.>.>.>.>.>.>.>.>.>.>.>.:.,.>.:.>.1.>.:.%.N : m P 4     $ m { :.2.>.>.,.,.1.1.>.:.>.>.;.2.>.2.=.<.<.;.<.>.>.2.=.) l +                                   .   O 5 [ 5.<.,.>.>.>.>.>.>.>.>.>.>.>.>.>.>.>.>.>.>.>.>.>.>.>.>.",
">.>.,.>.>.>.>.>.>.>.>.>.>.>.>.,.>.>.>.>.>.>.>.>.>.>.>.>.>.>.>.>.,.,.,.:.>.>.>.1.2.*.P : t Y i X     > S  .,.2.:.>.:.>.>.1.,.>.<.:.-.-.2.:.,.2.*.+.' J i +   o                     = *             .     y +.:.:.>.>.>.>.>.>.>.>.>.>.>.>.>.>.>.>.>.>.>.>.>.>.>.>.",
">.>.>.>.>.>.>.>.>.>.>.>.>.>.>.>.>.>.>.>.>.>.>.,.>.>.>.>.>.>.>.>.>.>.,.,.>.:.:.>.:.1.>./ 8 5 B h X .     5 D +.>.,.1.,.:.>.:.:.,.2.>.2.:.<.%.v y 1 @   .   .                     . i ] ! J g w < O         c >.,.>.>.>.>.>.>.>.>.>.>.>.>.>.>.>.>.>.>.>.>.>.>.>.>.",
">.>.>.>.>.>.>.>.>.>.>.>.>.>.>.>.>.>.>.>.>.>.>.>.,.>.>.>.>.>.>.>.:.>.>.,.,.,.>.>.>.1.>.>.&.c : h m >     X   3 D X.-.1.>.1.1.>.:.:.2.>.:.2.*.7   o . .                             O Q 4.:.1.*.X.` I v y , , } :.>.>.>.>.>.>.>.>.>.>.,.>.>.,.>.>.>.>.>.>.>.>.>.>.",
">.>.>.>.>.>.>.>.>.>.>.>.>.>.>.>.>.>.>.>.>.>.>.>.>.>.>.>.>.>.>.>.,.>.:.>.>.>.>.>.:.>.>.-.,.1./ 8 2 f 2       .   > m ] *.<.:.<.<.:.:.-.2.:.-.k .     X +                             0  .:.<.>.,.1.,.>.=.X.( %.1.>.>.,.>.>.>.>.>.>.>.>.>.>.>.>.>.>.>.>.>.>.,.>.>.",
">.>.>.>.>.>.>.>.>.,.>.>.>.>.>.>.>.>.>.>.>.>.>.>.>.>.>.>.>.>.>.>.>.,.>.>.>.>.>.>.>.>.:.2.>.>.1.$.A 1 * 2 &           = k ) :.2.:.:.:.2.:.2.+.5     O L H +                             h *.:.3.-.>.-.2.:.2.2.1.>.>.>.>.>.>.>.>.>.>.>.>.>.>.>.>.>.>.>.>.>.>.>.>.>.",
">.>.>.>.>.>.>.>.>.>.>.>.>.>.>.>.,.>.>.>.>.>.>.>.>.>.>.>.>.>.>.>.>.>.,.>.>.>.>.>.:.,.>.:.>.:.:.,.>.[ f > + + :           + f / -.2.2.-.2.#.l .     3 +.:.f .                             V -.>.,.,.>.>.,.:.:.>.>.>.>.>.>.>.>.>.>.>.>.>.>.>.>.>.>.>.>.>.>.>.>.>.>.",
">.>.>.>.>.>.>.>.>.>.>.>.>.>.>.>.>.>.>.>.>.>.>.>.>.>.>.>.>.>.>.>.>.>.>.>.>.>.>.>.>.>.>.>.>.>.>.>.2.:.:.! y $ o           O   # u W ;.:.$.n + &   . T :.1.` +             .               % _ 1.<.>.,.:.>.2.>.>.>.>.>.>.>.>.>.,.>.>.>.>.>.>.>.>.>.>.>.>.>.,.>.>.>.",
">.>.>.>.>.>.>.>.>.>.>.>.>.>.>.>.>.>.>.>.>.>.>.>.>.>.>.>.>.,.>.>.>.>.>.>.>.>.>.>.>.>.>.>.>.>.>.>.=.2.:.>.&.J <         r / P t X X 3 n p     % X z :.<.>.:.x   X                     .     d %.<.2.>.=.>.:.:.2.:.>.>.>.>.>.>.>.>.>.>.>.>.>.>.>.>.>.>.>.>.>.>.>.>.",
">.,.>.>.>.>.>.>.>.>.>.>.>.>.>.>.>.>.,.>.>.>.>.>.>.>.>.>.>.>.>.>.>.>.>.>.>.>.>.>.>.>.>.>.>.>.>.>.>.>.2.:.1.:.M       o R 1.1.*.E d *       .   6 ..2.>.1.>.` *       .           .     .   . x *.>.:.2.2.2.:.=.2.>.>.>.>.>.>.>.>.>.>.>.>.>.>.>.>.>.>.>.>.>.>.>.>.",
">.>.>.>.>.>.>.>.>.>.,.>.>.>.>.>.>.>.>.>.>.>.>.>.>.>.>.>.>.>.>.>.>.>.>.>.>.>.>.>.>.>.>.>.>.>.>.>.2.=.=.2.,.*.0       y %.,.:.1.3.;._ k +     O L 1.-.:.1.:.:.k                               . S :.2.>.=.:.>.2.:.>.>.>.>.>.>.>.>.>.>.>.>.>.>.>.>.>.>.>.>.>.>.>.>.",
">.>.>.>.>.>.>.>.>.>.>.>.>.>.>.>.>.>.>.>.>.>.>.>.>.>.,.>.>.>.>.>.:.2.:.:.>.>.>.>.>.>.>.>.>.>.>.>.,.,.,.:.:.H +     , ( :.2.2.:.:.<.2.$.e     5 O.1.>.>.,.:.2.[ =                           .   = ) ,.>.:.2.:.2.2.>.>.>.>.>.>.>.>.>.>.>.>.>.>.>.>.>.,.>.>.>.>.>.>.",
">.>.>.>.>.>.>.>.>.>.>.>.>.>.>.>.>.>.>.>.>.>.,.>.>.>.>.>.>.>.>.>.:.2.:.2.>.>.>.>.>.>.>.>.2.>.>.>.-.,.,.,.O.2   X . v 2.:.-.:.2.:.<.<.o.>   . x 1.,.:.,.>.>.>.<.V                       .         , K =.2.:.:.:.-.>.>.>.>.>.>.>.>.>.>.>.>.>.>.>.>.>.>.>.>.>.>.>.>.",
">.>.>.>.>.>.>.>.>.>.>.>.>.>.>.>.>.>.>.>.>.>.>.>.>.>.>.>.>.>.>.>.:.:.>.>.>.>.>.>.>.>.>.>.:.>.>.>.1.>.,.-.f   X   = ' >.>.2.>.-.:.<.2.W .     T 1.:.,.,.-.2.,.-.*.t           .                 X   o C %.2.2.:.2.>.>.>.>.>.>.>.>.>.>.>.>.>.,.>.>.>.>.>.>.>.>.>.>.",
">.>.>.>.>.,.>.>.>.>.>.>.>.>.>.>.>.>.>.>.>.>.>.>.>.>.>.>.>.>.>.>.2.>.>.>.>.>.:.2.>.>.>.>.>.>.>.>.>.>.>.P o     . Z >.2.:.>.>.2.:.<.:.B     > O.,.,.>.:.2.-.,.,.,.` >                                 . b @.>.>.:.>.>.>.>.>.>.>.>.>.>.>.>.>.>.>.>.>.>.>.>.>.>.>.>.",
">.>.>.>.>.>.>.>.>.>.>.>.>.>.>.,.>.>.>.,.>.>.>.>.>.>.>.>.>.>.>.>.:.:.>.>.2.:.>.:.,.:.>.2.-.2.>.:.>.1.} >     . i *.>.>.>.2.>.:.>.<.*.9     u -.>.,.>.>.>.>.>.>.>.1.I o .                                 k %.<.<.>.,.>.>.1.,.-.1.>.>.>.>.>.>.>.>.>.>.>.>.>.>.>.>.",
">.>.>.>.>.>.>.>.>.>.>.>.>.>.>.>.>.>.>.>.>.>.>.>.>.>.>.>.>.>.>.>.2.>.>.>.>.>.>.>.>.,.:.:.2.:.>.,.,.&.c + X   X / >.,.,.;.>.>.>.>.<.] *     S >.,.>.>.>.>.>.>.>.>.>.:.S                         .       o . p #.2.<.:.,.;.-.1.>.,.>.>.>.>.>.>.>.>.>.>.>.>.>.>.>.>.",
">.>.>.>.>.>.>.>.>.>.>.>.>.>.>.>.>.>.>.>.>.>.>.>.>.>.>.>.>.>.>.>.:.>.:.>.>.>.:.-.:.,.>.,.,.-.:.2.:.K 8 +     l *.,.>.>.>.>.>.>.<.1.G .   * [ 1.>.>.>.>.>.>.>.>.>.>.,.*.c                 .                   t  .,.:.<.2.1.:.:.:.>.>.>.>.>.>.>.>.>.>.>.>.>.>.>.>.",
">.>.>.>.,.>.>.>.>.>.>.>.>.>.>.>.>.>.>.>.>.>.>.>.>.>.>.>.>.>.,.>.>.2.>.>.2.:.>.2.>.,.2.:.:.2.>.>.[ 2 .     > { 1.>.>.>.>.>.>.>.,.;.d     u *.>.:.>.>.>.>.>.>.>.>.:.>.1.$.p   .                           .     q [ 1.>.=.:.,.3.,.>.>.>.>.>.>.>.>.>.>.>.>.>.>.>.>.",
",.>.>.>.>.>.>.>.>.>.>.>.>.>.>.>.>.>.>.>.>.>.>.>.>.>.>.>.>.>.>.>.>.>.>.:.:.>.>.>.>.,.,.>.>.-.,.-.k       o F 2.>.>.>.>.>.>.>.:.,. .>     H :.,.,.>.>.>.>.>.>.>.>.>.1.,.>.O.0     X         .       .             6 ` ,.:.1.,.>.:.>.>.>.>.>.,.>.>.>.>.>.>.>.>.>.>.",
">.>.>.>.>.>.>.>.>.>.>.>.>.>.>.>.>.>.>.>.>.>.>.>.>.>.>.>.>.>.>.>.:.>.>.2.,.>.>.>.,.-.>.,.>.>.1.U +   +   f &.1.:.,.>.>.>.:.>.2.2.W .   -  .,.1.:.>.>.>.>.>.>.>.>.,.:.-.1.,.} 3         .         O     X     . O $ < ! ,.:.:.>.1.,.>.>.>.>.>.>.>.>.>.>.>.>.,.>.>.",
">.>.>.>.>.>.>.>.>.>.>.>.>.>.>.>.>.>.>.>.>.>.>.>.>.>.>.>.>.>.>.>.>.>.>.2.>.>.>.>.,.>.,.-.>.2.( :       2  .5.*.1.>.>.>.>.>.,.,.:.k     f -.,.1.>.>.>.>.>.>.>.>.>.>.>.3.-.,.1.) >           +                     + o - T 2.:.,.:.>.>.>.>.>.>.>.>.>.>.>.>.>.>.>.>.",
">.>.>.>.>.>.>.>.>.>.>.,.>.>.>.>.>.>.>.>.>.>.>.,.>.>.>.>.>.>.>.>.2.:.*.@.+.%.-.,.>.>.>.2.,.[ 4       # T 1.:.1.,.>.>.>.>.>.,.;.#.2   o P ,.>.:.,.>.>.>.>.>.>.>.>.:.,.:.:.1.:.:.! >   >   i H $       .                 = H >.>.>.>.>.>.>.>.>.>.>.>.>.>.>.>.>.>.>.",
">.>.>.>.>.>.>.>.2.>.>.>.>.>.>.>.>.>.>.>.>.>.>.>.,.>.:.,.2.>.>.:.:.H i 2 ; 3 j W *.:.1.4._ 6         n :.*.&.$.%.:.:.,.1.:.:.2.! .   2 O.>.>.<.>.>.>.>.>.>.>.>.>.>.>.>.>.>.>.>.>.Q :   6 } >.b .     .         .     .   + B O.2.,.,.,.:.>.:.2.:.2.:.>.>.>.>.>.>.",
">.>.>.>.>.>.>.>.:.>.>.>.>.>.>.>.>.>.>.>.>.>.>.>.:.1.,.,.=.2.:.+.k +       .   O 6 m S m 6       . 2 G V p 3 2 1 c =.>.;.,.2.:.v     f ;.2.,.:.>.>.>.>.>.>.>.>.>.>.>.>.>.>.>.>.>.:.) 8 E ,.2.+.w         .                   6 T :.:.-.1.-.2.:.:.2.:.>.>.>.>.>.>.",
">.>.>.>.>.>.>.>.>.>.>.>.>.>.>.>.>.>.>.,.>.>.>.>.-.:.,.:.,.>.&.g 1   0 3       .             .     % *       .     M :.1.:.,.$.7   X Q 1.,.=.,.,.<.>.>.>.>.>.>.>.>.>.>.>.>.>.>.>.2.>.@.,.:.>.:.{ 3     .                 .     + Z 1.,.,.:.:.>.,.:.>.>.>.>.>.>.>.",
">.>.>.>.>.>.>.>.>.>.>.>.>.>.>.>.>.>.>.>.>.>.>.>.3.>.2.:.-.2.F o   k P +                                 X X   > t I :.1.4.>.` .   * [ ;.;.2.<.>.>.>.>.>.>.>.>.>.>.,.>.>.>.>.>.>.>.>.1.-.2.>.2.:./ 2           V t *             # N :.:.:.>.2.>.>.>.>.>.>.>.>.>.",
">.>.>.>.>.>.>.>.>.>.>.>.>.>.>.>.>.>.>.>.>.>.,.>.:.-.>.2.,.) >   4 E >         .     X   X + * = , 3 0 i k B Y O.=.<.$.o.[ | n     + 0 p V  .:.2.>.>.>.>.>.>.>.>.>.>.>.>.>.>.>.>.:.,.,.-.>.,.:.>.<.] t   .   . _ =.T d ;           # ) ,.>.2.:.-.>.>.2.>.>.>.>.>.",
">.>.>.>.>.>.>.>.>.>.>.>.>.>.>.>.>.>.>.>.>.>.>.>.:.2.:.:.-.z     v K .     o , < t k V K Q _ ` O.#.*.*.:.:.:.1.>.;.T r : + *           X * k &.:.>.>.>.>.>.>.>.>.>.>.>.>.>.>.>.>.,.>.>.2.>.:.2.:.:.1.*.F 2 . . ) 1.1.:. .J y = o   X 8 ..,.-.,.,.>.>.:.>.>.>.>.>.",
">.>.2.:.>.>.>.>.>.>.>.>.>.>.>.>.>.>.>.>.>.>.>.>.2.:.>.2.=.` F F X.+.b M P ) { %.&.<.,.>.>.1.,.>.>.>.1.1.=.,.>.,.^ > *             X 3 1   * ..,.>.>.>.>.>.>.>.>.>.>.>.>.>.>.>.>.2.-.>.>.>.>.,.>.,.:.1.:.X.F l +.,.>.:.:.>.>.+.E S z f +.,.>.-.,.>.>.>.>.>.>.>.>.",
">.>.>.>.>.>.>.>.>.>.>.>.>.>.>.>.>.>.>.>.>.>.>.>.-.2.:.>.,.2.,.:.,.:.>.>.,.2.>.2.1.:.:.,.,.-.,.,.>.>.>.:.2.>.>.$.e     > 0 .     * A $.o.p . H 1.>.>.>.>.>.>.>.>.>.>.>.>.>.>.>.>.-.3.-.,.,.>.:.,.>.,.1.:.,.>.>.>.:.1.>.>.>.>.>.2.1.:.-.,.-.2.>.>.>.>.>.>.>.>.>.>.",
">.>.>.>.>.>.>.>.>.>.>.>.>.>.>.>.>.>.>.>.>.>.>.>.>.>.:.:.2.>.>.>.>.>.>.>.>.>.>.>.>.>.>.>.>.>.>.>.<.>.>.>.,.;.,.J   * v  .+.0     M =.2.2.+., v >.>.>.>.>.>.>.>.>.>.>.>.>.>.>.>.,.>.>.>.>.>.>.>.>.>.>.>.>.>.>.>.>.>.>.>.>.>.>.>.>.>.>.>.>.>.>.>.>.>.>.>.>.>.>.>.>.",
">.>.>.>.>.>.>.>.>.>.>.>.>.>.>.>.>.>.>.>.>.>.>.>.>.>.2.:.:.>.>.>.>.>.>.>.>.>.>.>.>.>.>.>.>.>.>.>.>.=.,.2.:.2.@.7 q ! >.2.<.D   . ( 2.=.:.:.( } >.>.>.>.>.>.>.>.>.>.>.>.>.>.>.>.>.>.>.>.>.>.>.>.>.>.>.>.>.>.>.>.>.>.>.>.>.>.>.>.>.>.>.>.>.>.>.>.,.>.>.>.>.>.>.>.>.",
">.>.>.>.>.>.>.>.>.>.>.>.>.>.>.>.>.>.>.>.>.>.>.>.>.2.:.:.>.>.>.>.>.>.>.>.>.>.>.>.>.>.>.>.>.>.>.>.,.>.>.:.:.2.=.J ..2.2.-.<.(   2 +.2.2.:.2.=.>.2.>.>.<.>.>.>.>.>.>.>.>.>.>.>.>.>.>.>.>.>.>.>.>.>.>.>.>.>.>.>.>.>.>.>.>.>.>.>.>.>.>.>.>.>.>.>.>.>.>.>.>.>.>.>.>.>.",
">.>.>.>.>.>.>.>.>.>.>.>.>.>.>.>.>.>.>.>.>.>.:.2.>.>.:.2.>.>.>.>.>.>.>.>.>.>.>.>.>.>.>.>.>.>.>.>.:.2.>.:.2.:.:.>.2.>.=.>.2.%.a x =.>.:.2.=.2.>.>.>.>.>.>.>.>.>.>.>.>.>.>.>.>.>.>.>.>.>.>.>.>.,.>.>.>.>.>.>.>.>.>.>.>.>.>.>.>.>.>.>.>.>.>.>.>.>.>.>.>.>.>.>.>.>.>.",
">.>.>.>.>.>.>.>.>.>.>.>.>.>.>.>.>.>.>.>.>.>.>.>.>.>.>.>.>.>.>.>.>.>.>.>.>.>.>.>.>.>.>.>.>.2.:.>.>.:.:.2.:.:.:.2.>.>.2.>.:.2...+.2.=.>.2.2.>.>.>.>.>.>.>.>.>.>.>.,.>.>.>.>.>.>.>.>.>.>.,.>.>.>.>.>.>.>.>.>.>.>.>.>.>.>.>.>.>.>.>.>.>.>.>.>.>.>.>.>.>.>.>.>.>.>.>.",
">.>.>.>.>.>.>.>.>.>.2.:.>.>.>.>.>.>.>.>.>.>.>.>.>.>.>.>.>.>.>.>.:.2.>.>.>.>.>.>.>.>.>.>.>.>.>.>.2.=.2.:.:.2.2.-.>.:.:.>.:.:.2.2.=.2.2.>.:.:.>.>.>.>.>.>.>.>.>.>.>.>.>.>.>.>.>.>.>.>.>.>.>.>.>.>.>.>.>.>.>.>.>.>.>.>.,.>.>.>.>.>.>.>.>.>.>.>.>.>.>.>.>.>.>.>.>.>.",
">.>.>.>.>.>.>.>.>.>.>.>.>.>.>.>.>.>.>.>.>.>.>.>.>.>.>.>.>.>.>.>.>.>.>.>.>.>.>.>.>.>.>.>.>.>.>.>.:.2.2.:.2.:.=.2.>.>.>.>.2.=.>.=.:.2.>.=.>.>.2.>.>.>.>.>.>.>.>.>.>.>.>.>.>.>.>.>.>.>.>.>.>.>.>.>.>.>.>.>.>.>.>.>.>.>.>.>.>.>.>.>.>.>.>.,.>.>.>.>.>.>.>.>.>.>.>.>.",
">.>.>.>.>.>.>.>.>.>.>.>.>.>.>.>.>.>.>.>.>.>.>.>.>.>.>.>.>.>.>.>.>.>.>.>.>.>.>.>.>.>.>.>.>.>.>.>.>.=.:.=.2.:.>.-.>.>.>.:.2.:.=.>.2.=.>.2.>.>.>.>.>.>.>.>.>.>.>.>.>.>.>.>.>.>.>.>.>.>.>.>.>.>.>.>.>.>.>.>.>.,.>.>.>.>.>.>.>.>.>.>.>.>.>.>.>.>.>.>.>.>.>.>.,.>.>.>."
};
